icons/moon-stars.svg

<svg width="24" height="24" viewBox="0 0 24 24" fill="none" xmlns="http://www.w3.org/2000/svg">
<path d="M20 10V6" stroke="white" stroke-width="2" stroke-linecap="round" stroke-linejoin="round"/>
<path d="M22 8H18" stroke="white" stroke-width="2" stroke-linecap="round" stroke-linejoin="round"/>
<path d="M15.5 2V5" stroke="white" stroke-width="2" stroke-linecap="round" stroke-linejoin="round"/>
<path d="M17 3.5H14" stroke="white" stroke-width="2" stroke-linecap="round" stroke-linejoin="round"/>
<path d="M9.658 3.101L10.038 3C9.1079 4.50542 8.73297 6.28848 8.978 8.041C9.22163 9.80059 10.0672 11.4215 11.371 12.628C12.6678 13.8301 14.3444 14.5405 16.11 14.636C17.8661 14.7298 19.5986 14.1984 21 13.136C20.794 14.7639 20.1494 16.3052 19.135 17.595C18.1242 18.8796 16.7802 19.8619 15.2494 20.435C13.7186 21.0081 12.0599 21.1499 10.454 20.845C8.83856 20.5393 7.33606 19.8019 6.106 18.711C4.871 17.6165 3.95237 16.2106 3.446 14.64C2.9388 13.072 2.86315 11.3963 3.227 9.789C3.58895 8.19024 4.37959 6.72028 5.514 5.537C6.64484 4.35844 8.07759 3.51304 9.656 3.093L9.658 3.101V3.101Z" stroke="white" stroke-width="2" stroke-linecap="round" stroke-linejoin="round"/>
</svg>

<svg
  width="24"
  height="24"
  viewBox="0 0 24 24"
  xmlns="http://www.w3.org/2000/svg"
  fill="none"
  stroke="currentColor"
  stroke-width="2"
  stroke-linecap="round"
  stroke-linejoin="round"
>
  <path d="M20 10V6" />
  <path d="M22 8h-4" />
  <path d="M15.5 2v3" />
  <path d="M17 3.5h-3" />
  <path d="M9.658 3.101l.38-.101a7.591 7.591 0 0 0-1.06 5.041 7.686 7.686 0 0 0 2.393 4.587 7.573 7.573 0 0 0 4.739 2.008 7.438 7.438 0 0 0 4.89-1.5 9.05 9.05 0 0 1-1.865 4.459 8.927 8.927 0 0 1-8.681 3.25 9.104 9.104 0 0 1-4.348-2.134 9.22 9.22 0 0 1-2.879-8.922 9.023 9.023 0 0 1 2.287-4.252 8.92 8.92 0 0 1 4.142-2.444l.002.008z" />
</svg>
